X: 366
T: Ashokan Farewell
C:Jay Unger
B: steve song book
B: ralph
B: steve tunes
B: steve set list
B: jims roots and blues
M:3/4
L:1/8
Q: 1/4=100
K:D
V:1 
%Q:180
x Ac | "D"d3c BA | "D7"F4 EF | "G"G3F ED | "Em"B,2 D3B, | "D"A,2 D2 F2 | "Bm"A2 d2 f2 |
"G"f3g f2 | "A7"e4 Ac || "D"d3c BA | "D7"F4 EF | "G"G3F ED | "Em"B,2 D3B, | "D"A,2 D2 F2 |
"Bm"A2 d2 f2 | "A7"A2 c2 e2 | "D"d4 FG || [P:B Part]A3 F D2 | "D7"d4 AA | "G"B3c d2 | "D"AF3 E2 |
F3E DC | "Bm"B,3C B,G, | "A"A,4- CA | "A7"A4 FE | "D"D2 F2 A2 | "C"=c4 d2 | "G"B3c d2 |
"D"AF3 D2 | A,2 D2 F2 | A2 d2 F2 | "A7"E3D C2 | "D"D6 |]
W: 
W: 
W: The sun is sinking low
W: In the sky above Ashokan
W: The pines and the willows
W: Know soon we will part
W: There's a whisper in the wind
W: Of promises unspoken
W: And a love that will always
W: Remain in my heart
W: 
W: My thoughts will return
W: To the sound of your laughter
W: The magic of moving as one
W: And a time we'll remember
W: Long ever after
W: The moonlight and music
W: And dancing are done
W: 
W: Will we climb the hills once more?
W: Will we walk the woods together?
W: Will I feel you holding me close once again?
W: Will every song we've sung
W: Stay with us forever?
W: Will you dance in my dreams
W: Or my arms until then?
W: 
W: Under the moon
W: The mountains lie sleeping
W: Over the lake stars shine
W: They wonder if you and I
W: Will be keeping
W: The magic of music
W: Or leave them behind
% abcbook-tune_id 6298c24549e72386d323e971
% abcbook-link-0 https://www.youtube.com/watch?v=2kZASM8OX7s
% abcbook-link-title-0 Folk Alley Sessions: Jay Ungar &amp; Molly Mason Family Band, &quot;Ashokan Farewell&quot;

% abcbook-boost 0
% abcbook-tablature 
% abcbook-transpose 
% abcbook-lastupdated 1667573825096
% abcbook-soundfonts 
% abcbook-repeats 2


